X:18594
T:Wenn alle Brünnleinn fliessen
R:
O:
A:
S:
B:Deutsch-Französisches Liederbuch
Z:transcription (partition) : eric.forgeot@caramail.com
N: - p. 45
N:
M:4/4
L:1/4
Q:1/4=130
K:G
D | G G A A | (B>A) G B | c B (A G) | A2 z :] d |
D>E D F | G>A G2 | A2 d2 | d>e d c | B G (B A) | G2 z |]


